src/components/content/Icon/functional/cross.svg

<svg width="100" height="100" viewBox="0 0 100 100" fill="none" xmlns="http://www.w3.org/2000/svg">
<path d="M39.5582 60.222C39.7542 60.418 40.0102 60.514 40.2662 60.514C40.5222 60.514 40.7782 60.416 40.9742 60.222L60.0062 41.19C60.1935 41.0024 60.2988 40.7481 60.2988 40.483C60.2988 40.2179 60.1935 39.9636 60.0062 39.776C59.8186 39.5887 59.5643 39.4834 59.2992 39.4834C59.0341 39.4834 58.7798 39.5887 58.5922 39.776L49.7842 48.584L40.9762 39.776C40.7886 39.5887 40.5343 39.4834 40.2692 39.4834C40.0041 39.4834 39.7498 39.5887 39.5622 39.776C39.3749 39.9636 39.2697 40.2179 39.2697 40.483C39.2697 40.7481 39.3749 41.0024 39.5622 41.19L48.3702 49.998L39.5622 58.806C39.3749 58.9936 39.2697 59.2479 39.2697 59.513C39.2697 59.7781 39.3749 60.0324 39.5622 60.22L39.5582 60.222ZM52.9762 51.782C52.7886 51.5947 52.5343 51.4894 52.2692 51.4894C52.0041 51.4894 51.7498 51.5947 51.5622 51.782C51.3749 51.9696 51.2697 52.2239 51.2697 52.489C51.2697 52.7541 51.3749 53.0084 51.5622 53.196L58.5902 60.224C58.7862 60.42 59.0422 60.516 59.2982 60.516C59.5542 60.516 59.8102 60.418 60.0062 60.224C60.1935 60.0364 60.2988 59.7821 60.2988 59.517C60.2988 59.2519 60.1935 58.9976 60.0062 58.81L52.9782 51.782H52.9762Z" fill="#0B301A"/>
<path d="M50.0002 25.324C44.3802 25.324 38.8822 27.264 34.5162 30.786C34.4138 30.8683 34.3287 30.97 34.2658 31.0853C34.2028 31.2006 34.1632 31.3272 34.1493 31.4578C34.1353 31.5885 34.1473 31.7205 34.1846 31.8465C34.2218 31.9725 34.2835 32.0899 34.3662 32.192C34.4486 32.2943 34.5503 32.3793 34.6656 32.4423C34.7809 32.5052 34.9075 32.5447 35.0381 32.5587C35.1687 32.5726 35.3008 32.5606 35.4267 32.5235C35.5527 32.4863 35.6701 32.4246 35.7722 32.342C39.7822 29.106 44.8362 27.324 50.0002 27.324C62.5042 27.324 72.6762 37.496 72.6762 50C72.6762 62.504 62.5042 72.676 50.0002 72.676C37.4962 72.676 27.3242 62.504 27.3242 50C27.3242 44.578 29.2682 39.33 32.7982 35.224C32.9709 35.0229 33.0568 34.7614 33.0369 34.497C33.017 34.2327 32.8931 33.987 32.6922 33.814C32.4911 33.6412 32.2297 33.5554 31.9653 33.5753C31.7009 33.5951 31.4553 33.7191 31.2822 33.92C27.4402 38.388 25.3242 44.1 25.3242 50C25.3242 63.606 36.3942 74.676 50.0002 74.676C63.6062 74.676 74.6762 63.606 74.6762 50C74.6762 36.394 63.6062 25.324 50.0002 25.324Z" fill="#0B301A"/>
</svg>

<svg xmlns="http://www.w3.org/2000/svg" width="100" height="100" fill="none" viewBox="0 0 100 100"><path fill="#0b301a" d="M39.558 60.222a1.004 1.004 0 0 0 1.416 0L60.006 41.19a1 1 0 0 0-1.414-1.414l-8.808 8.808-8.808-8.808a1 1 0 0 0-1.414 1.414l8.808 8.808-8.808 8.808a1 1 0 0 0 0 1.414zm13.418-8.44a1 1 0 0 0-1.414 1.414l7.028 7.028a1.004 1.004 0 0 0 1.416 0 1 1 0 0 0 0-1.414l-7.028-7.028z"/><path fill="#0b301a" d="M50 25.324c-5.62 0-11.118 1.94-15.484 5.462a.996.996 0 0 0-.15 1.406 1 1 0 0 0 1.406.15A22.73 22.73 0 0 1 50 27.324c12.504 0 22.676 10.172 22.676 22.676S62.504 72.676 50 72.676 27.324 62.504 27.324 50c0-5.422 1.944-10.67 5.474-14.776a1 1 0 0 0-1.516-1.304A24.68 24.68 0 0 0 25.324 50c0 13.606 11.07 24.676 24.676 24.676S74.676 63.606 74.676 50 63.606 25.324 50 25.324"/></svg>
